SVG_Azure_All/Azure AD Identity Protection.svg

<?xml version="1.0" encoding="UTF-8" standalone="no"?>
<!-- Generated by Microsoft Visio, SVG Export Azure AD Identity Protection.svg Page-1 -->

<svg
   xmlns:dc="http://purl.org/dc/elements/1.1/"
   xmlns:cc="http://creativecommons.org/ns#"
   xmlns:rdf="http://www.w3.org/1999/02/22-rdf-syntax-ns#"
   xmlns:svg="http://www.w3.org/2000/svg"
   xmlns="http://www.w3.org/2000/svg"
   xmlns:xlink="http://www.w3.org/1999/xlink"
   xmlns:sodipodi="http://sodipodi.sourceforge.net/DTD/sodipodi-0.dtd"
   xmlns:inkscape="http://www.inkscape.org/namespaces/inkscape"
   width="0.74821794in"
   height="0.78738087in"
   viewBox="0 0 53.871888 56.691734"
   xml:space="preserve"
   class="st6"
   version="1.1"
   id="svg66"
   sodipodi:docname="Azure AD Identity Protection.svg"
   style="font-size:12px;overflow:visible;color-interpolation-filters:sRGB;fill:none;fill-rule:evenodd;stroke-linecap:square;stroke-miterlimit:3"
   inkscape:version="0.92.5 (2060ec1f9f, 2020-04-08)"><metadata
   id="metadata70"><rdf:RDF><cc:Work
       rdf:about=""><dc:format>image/svg+xml</dc:format><dc:type
         rdf:resource="http://purl.org/dc/dcmitype/StillImage" /></cc:Work></rdf:RDF></metadata><sodipodi:namedview
   pagecolor="#ffffff"
   bordercolor="#666666"
   borderopacity="1"
   objecttolerance="10"
   gridtolerance="10"
   guidetolerance="10"
   inkscape:pageopacity="0"
   inkscape:pageshadow="2"
   inkscape:window-width="640"
   inkscape:window-height="480"
   id="namedview68"
   showgrid="false"
   inkscape:zoom="1.4193119"
   inkscape:cx="35.917651"
   inkscape:cy="37.783173"
   inkscape:window-x="0"
   inkscape:window-y="0"
   inkscape:window-maximized="0"
   inkscape:current-layer="svg66" />
	<style
   type="text/css"
   id="style2">
	<![CDATA[
		.st1 {fill:url(#grad0-6);stroke:none;stroke-linecap:butt;stroke-width:34}
		.st2 {fill:#ffffff;fill-opacity:0.8;stroke:none;stroke-linecap:butt;stroke-width:34}
		.st3 {fill:#dfa500;stroke:none;stroke-linecap:butt;stroke-width:34}
		.st4 {fill:url(#grad0-17);stroke:none;stroke-linecap:butt;stroke-width:34}
		.st5 {fill:#ffd400;stroke:none;stroke-linecap:butt;stroke-width:34}
		.st6 {fill:none;fill-rule:evenodd;font-size:12px;overflow:visible;stroke-linecap:square;stroke-miterlimit:3}
	]]>
	</style>

	<defs
   id="Patterns_And_Gradients">
		<linearGradient
   id="grad0-6"
   x1="0"
   y1="0"
   x2="1"
   y2="0"
   gradientTransform="rotate(90,0.5,0.5)">
			<stop
   offset="0.1"
   stop-color="#54aef0"
   stop-opacity="1"
   id="stop4" />
			<stop
   offset="1"
   stop-color="#1988d9"
   stop-opacity="1"
   id="stop6" />
		</linearGradient>
		<linearGradient
   id="grad0-17"
   x1="0"
   y1="89.683239"
   x2="23.656817"
   y2="89.683239"
   gradientTransform="scale(0.90882894,1.1003171)"
   gradientUnits="userSpaceOnUse">
			<stop
   offset="0"
   stop-color="#ffd70f"
   stop-opacity="1"
   id="stop9" />
			<stop
   offset="0.12"
   stop-color="#ffcc11"
   stop-opacity="1"
   id="stop11" />
			<stop
   offset="0.44"
   stop-color="#feb517"
   stop-opacity="1"
   id="stop13" />
			<stop
   offset="0.75"
   stop-color="#fea61a"
   stop-opacity="1"
   id="stop15" />
			<stop
   offset="1"
   stop-color="#fea11b"
   stop-opacity="1"
   id="stop17" />
		</linearGradient>
	<linearGradient
   inkscape:collect="always"
   xlink:href="#grad0-6"
   id="linearGradient4580"
   gradientTransform="scale(1.2936628,0.77299893)"
   x1="-0.013980156"
   y1="124.35981"
   x2="36.959106"
   y2="124.35981"
   gradientUnits="userSpaceOnUse" /><linearGradient
   inkscape:collect="always"
   xlink:href="#grad0-6"
   id="linearGradient4582"
   gradientTransform="scale(1.0050864,0.99493932)"
   x1="0"
   y1="98.734765"
   x2="26.608457"
   y2="98.734765"
   gradientUnits="userSpaceOnUse" /></defs>
	<g
   id="g64"
   transform="translate(-34.000226,-34.0003)">
		<title
   id="title21">Page-1</title>
		<g
   id="group8725-1"
   transform="translate(34.0182,-34.0157)">
			<title
   id="title23">Azure AD Identity Protection</title>
			<g
   id="group8726-2">
				<title
   id="title25">Artboard 1</title>
				<g
   id="shape8727-3"
   transform="translate(0,-4.77882)">
					<title
   id="title27">Sheet.8727</title>
					<path
   d="m 43.55,124.71 a 4.21368,4.17113 -180 0 0 4.25,-4.14 2.53292,2.50735 -180 0 0 0,-0.5 C 46.14,106.74 38.53,96.13 24.22,96.13 9.9,96.13 1.62,105.24 0,120.11 a 4.27767,4.23448 -180 0 0 3.81,4.6 z"
   class="st1"
   id="path29"
   inkscape:connector-curvature="0"
   style="fill:url(#linearGradient4580);stroke:none;stroke-width:34;stroke-linecap:butt" />
				</g>
				<g
   id="shape8728-7"
   transform="translate(16.8412,-13.8146)">
					<title
   id="title32">Sheet.8728</title>
					<path
   d="M 7.17,108.3 A 13.2743,13.1402 0 0 1 0,106.17 l 7.07,18.54 7.14,-18.41 a 13.473,13.337 0 0 1 -7.04,2 z"
   class="st2"
   id="path34"
   inkscape:connector-curvature="0"
   style="fill:#ffffff;fill-opacity:0.8;stroke:none;stroke-width:34;stroke-linecap:butt" />
				</g>
				<g
   id="shape8729-9"
   transform="translate(10.6437,-30.2191)">
					<title
   id="title37">Sheet.8729</title>
					<ellipse
   cx="13.3719"
   cy="111.472"
   rx="13.3719"
   ry="13.2369"
   class="st1"
   id="ellipse39"
   style="fill:url(#linearGradient4582);stroke:none;stroke-width:34;stroke-linecap:butt" />
				</g>
				<g
   id="shape8730-12"
   transform="translate(30.2839)">
					<title
   id="title42">Sheet.8730</title>
					<path
   d="m 23.57,109.55 c 0,7.69 -8.93,14.43 -11.37,15.1 a 1.50561,1.4904 0 0 1 -0.83,0 C 8.94,123.98 0,117.21 0,109.55 v -9.24 a 0.700595,0.693522 0 0 1 0.609653,-0.766875 0.673649,0.666848 0 0 1 0.165044,0 C 8.03,99.29 6.47,96.21 11.65,96.21 c 5.18,0 3.63,3.08 10.88,3.34 a 0.700595,0.693522 0 0 1 0.778065,0.60016 0.673649,0.666848 0 0 1 0,0.16338 z"
   class="st3"
   id="path44"
   inkscape:connector-curvature="0"
   style="fill:#dfa500;stroke:none;stroke-width:34;stroke-linecap:butt" />
				</g>
				<g
   id="shape8731-14"
   transform="translate(31.3247,-1.05781)">
					<title
   id="title47">Sheet.8731</title>
					<path
   d="M 10.62,111.63 V 98.68 c 4.92,0 3.36,2.69 10.1,2.95 a 0.828589,0.820223 0 0 1 0.774697,0.77021 L 21.5,111.38 Z m 0,0 H 0 c 0.52,6.67 8.55,11.79 10.36,12.82 l 0.52,0.26 z"
   class="st4"
   id="path49"
   inkscape:connector-curvature="0"
   style="fill:url(#grad0-17);stroke:none;stroke-width:34;stroke-linecap:butt" />
				</g>
				<g
   id="shape8732-18"
   transform="translate(31.3247,-14.1347)">
					<title
   id="title52">Sheet.8732</title>
					<path
   d="m 0.52,114.81 c 6.73,-0.26 5.18,-3.05 10.1,-3.05 v 12.95 H 0 v -9.27 c 0,-0.51 0.26,-0.63 0.52,-0.63 z"
   class="st5"
   id="path54"
   inkscape:connector-curvature="0"
   style="fill:#ffd400;stroke:none;stroke-width:34;stroke-linecap:butt" />
				</g>
				<g
   id="shape8733-20"
   transform="translate(41.9414,-1.05781)">
					<title
   id="title57">Sheet.8733</title>
					<path
   d="M 10.88,111.38 0,111.63 0.26,124.71 c 1.81,-1.29 9.84,-6.67 10.62,-13.33 z"
   class="st5"
   id="path59"
   inkscape:connector-curvature="0"
   style="fill:#ffd400;stroke:none;stroke-width:34;stroke-linecap:butt" />
				</g>
			</g>
		</g>
	</g>
</svg>

<?xml version="1.0" encoding="UTF-8" standalone="no"?>
<!DOCTYPE svg PUBLIC "-//W3C//DTD SVG 1.1//EN" "http://www.w3.org/Graphics/SVG/1.1/DTD/svg11.dtd">
<!-- Generated by Microsoft Visio, SVG Export Azure AD Identity Protection.svg Page-1 -->
<svg xmlns="http://www.w3.org/2000/svg" xmlns:xlink="http://www.w3.org/1999/xlink" xmlns:ev="http://www.w3.org/2001/xml-events"
		width="1.69273in" height="1.73206in" viewBox="0 0 121.877 124.709" xml:space="preserve" color-interpolation-filters="sRGB"
		class="st6">
	<style type="text/css">
	<![CDATA[
		.st1 {fill:url(#grad0-6);stroke:none;stroke-linecap:butt;stroke-width:34}
		.st2 {fill:#ffffff;fill-opacity:0.8;stroke:none;stroke-linecap:butt;stroke-width:34}
		.st3 {fill:#dfa500;stroke:none;stroke-linecap:butt;stroke-width:34}
		.st4 {fill:url(#grad0-17);stroke:none;stroke-linecap:butt;stroke-width:34}
		.st5 {fill:#ffd400;stroke:none;stroke-linecap:butt;stroke-width:34}
		.st6 {fill:none;fill-rule:evenodd;font-size:12px;overflow:visible;stroke-linecap:square;stroke-miterlimit:3}
	]]>
	</style>

	<defs id="Patterns_And_Gradients">
		<linearGradient id="grad0-6" x1="0" y1="0" x2="1" y2="0" gradientTransform="rotate(90 0.5 0.5)">
			<stop offset="0.1" stop-color="#54aef0" stop-opacity="1"/>
			<stop offset="1" stop-color="#1988d9" stop-opacity="1"/>
		</linearGradient>
		<linearGradient id="grad0-17" x1="0" y1="0" x2="1" y2="0" gradientTransform="rotate(90 0.5 0.5)">
			<stop offset="0" stop-color="#ffd70f" stop-opacity="1"/>
			<stop offset="0.12" stop-color="#ffcc11" stop-opacity="1"/>
			<stop offset="0.44" stop-color="#feb517" stop-opacity="1"/>
			<stop offset="0.75" stop-color="#fea61a" stop-opacity="1"/>
			<stop offset="1" stop-color="#fea11b" stop-opacity="1"/>
		</linearGradient>
	</defs>
	<g>
		<title>Page-1</title>
		<g id="group8530-1" transform="translate(34.0182,-34.0157)">
			<title>Azure AD Identity Protection</title>
			<g id="group8531-2">
				<title>Artboard 1</title>
				<g id="shape8532-3" transform="translate(0,-4.77882)">
					<title>Sheet.8532</title>
					<path d="M43.55 124.71 A4.21368 4.17113 -180 0 0 47.8 120.57 A2.53292 2.50735 -180 0 0 47.8 120.07 C46.14 106.74
								 38.53 96.13 24.22 96.13 C9.9 96.13 1.62 105.24 0 120.11 A4.27767 4.23448 -180 0 0 3.81 124.71 L43.55
								 124.71 Z" class="st1"/>
				</g>
				<g id="shape8533-7" transform="translate(16.8412,-13.8146)">
					<title>Sheet.8533</title>
					<path d="M7.17 108.3 A13.2743 13.1402 0 0 1 0 106.17 L7.07 124.71 L14.21 106.3 A13.473 13.337 0 0 1 7.17 108.3
								 Z" class="st2"/>
				</g>
				<g id="shape8534-9" transform="translate(10.6437,-30.2191)">
					<title>Sheet.8534</title>
					<ellipse cx="13.3719" cy="111.472" rx="13.3719" ry="13.2369" class="st1"/>
				</g>
				<g id="shape8535-12" transform="translate(30.2839,1.42109E-14)">
					<title>Sheet.8535</title>
					<path d="M23.57 109.55 C23.57 117.24 14.64 123.98 12.2 124.65 A1.50561 1.4904 0 0 1 11.37 124.65 C8.94 123.98
								 0 117.21 0 109.55 L0 100.31 a0.700595 0.693522 0 0 1 0.609653 -0.766875 a0.673649 0.666848 0 0 1
								 0.165044 -2.84217E-14 C8.03 99.29 6.47 96.21 11.65 96.21 C16.83 96.21 15.28 99.29 22.53 99.55 a0.700595
								 0.693522 0 0 1 0.778065 0.600163 a0.673649 0.666848 0 0 1 -4.26326E-14 0.163378 L23.57 109.55 Z"
							class="st3"/>
				</g>
				<g id="shape8536-14" transform="translate(31.3247,-1.05781)">
					<title>Sheet.8536</title>
					<path d="M10.62 111.63 L10.62 98.68 C15.54 98.68 13.98 101.37 20.72 101.63 a0.828589 0.820223 0 0 1 0.774697
								 0.770209 L21.5 111.38 L10.62 111.63 ZM10.62 111.63 L0 111.63 C0.52 118.3 8.55 123.42 10.36 124.45
								 L10.88 124.71 L10.62 111.63 Z" class="st4"/>
				</g>
				<g id="shape8537-18" transform="translate(31.3247,-14.1347)">
					<title>Sheet.8537</title>
					<path d="M0.52 114.81 C7.25 114.55 5.7 111.76 10.62 111.76 L10.62 124.71 L0 124.71 L0 115.44 C0 114.93 0.26 114.81
								 0.52 114.81 Z" class="st5"/>
				</g>
				<g id="shape8538-20" transform="translate(41.9414,-1.05781)">
					<title>Sheet.8538</title>
					<path d="M10.88 111.38 L0 111.63 L0.26 124.71 C2.07 123.42 10.1 118.04 10.88 111.38 Z" class="st5"/>
				</g>
			</g>
		</g>
	</g>
</svg>
